X: 2
T: I Care Not For These Ladies
C: Thomas Campion (1601)
N: Dance by K.Skrobela
M: 6/8
L: 1/8
K: D
A \
| "D"d2e f2g | f3 "A7"e2c | "D"d2d "G"g2f | "A7"e3- e2 :| z |
"G(Em)"B2c d2e | "A7"c3 A2a | "D"a2b "A7"g2a | "D"f3- f2a | "D(F#m)"a>gf e2f | "G"g3 z2g |
"Em"g>ag "D"f2f | "A"e3 z2f | "A7"e2d e2c | "D"d2d "G"e>fg | "D"a>gf "A7"e2d | "D"d3 z2 |]


%%sep 5 1 500

